img/svg/skills.svg

<svg width="120" height="120" viewBox="0 0 120 120" fill="none" xmlns="http://www.w3.org/2000/svg">
<path d="M72.5534 76.1283C72.2248 76.0305 71.8793 76.0088 71.542 76.0582C71.5026 76.0563 71.463 76.0554 71.4237 76.0537C74.4661 73.0814 76.3598 68.9379 76.3598 64.3587V41.0156C76.3598 39.7214 75.3103 38.6719 74.0161 38.6719H56.6548C49.4789 38.6719 43.6409 44.5099 43.6409 51.6858V64.3584C43.6409 68.9377 45.5346 73.0812 48.577 76.0535C48.5376 76.0552 48.498 76.0561 48.4587 76.058C48.1216 76.0088 47.7759 76.0303 47.4473 76.128C35.3311 77.2158 25.8023 87.4249 25.8023 99.8196V111.328C25.8023 112.622 26.8519 113.672 28.1461 113.672H91.8548C93.1491 113.672 94.1986 112.622 94.1986 111.328V99.8198C94.1981 87.4254 84.6696 77.216 72.5534 76.1283ZM48.3279 54.9687V51.6858C48.3279 47.0946 52.0634 43.3594 56.6543 43.3594H71.6719V49.6315C71.6719 52.8007 69.0935 55.3791 65.9243 55.3791H48.3279V54.9687ZM48.3279 64.3587V60.0666H65.9243C68.047 60.0666 70.0223 59.4279 71.6719 58.335V64.3584C71.6719 70.7944 66.4357 76.0305 59.9998 76.0305C53.5638 76.0305 48.3279 70.7946 48.3279 64.3587ZM66.2245 80.718L60 86.9426L53.7755 80.718H66.2245ZM89.5106 108.984H30.4894V102.239H49.6153C50.9095 102.239 51.9591 101.19 51.9591 99.8953C51.9591 98.6011 50.9095 97.5516 49.6153 97.5516H30.6288C31.6648 88.8405 38.5833 81.9127 47.2898 80.8617L58.3427 91.9146C58.8005 92.3721 59.4002 92.6011 60 92.6011C60.5998 92.6011 61.1995 92.3721 61.6573 91.9146L72.7102 80.8617C82.1609 82.0024 89.5106 90.0666 89.5106 99.8198V108.984Z" fill="black"/>
<path d="M61.6568 98.2383C61.2211 97.8024 60.6164 97.5516 60 97.5516C59.3836 97.5516 58.7789 97.8024 58.343 98.2383C57.907 98.6742 57.6562 99.2789 57.6562 99.8953C57.6562 100.512 57.9068 101.116 58.343 101.552C58.7789 101.988 59.3836 102.239 60 102.239C60.6164 102.239 61.2211 101.988 61.6568 101.552C62.0927 101.116 62.3438 100.512 62.3438 99.8953C62.3438 99.2789 62.093 98.6742 61.6568 98.2383Z" fill="black"/>
<path d="M60.0298 6.32812C55.1189 6.32812 51.1235 10.3235 51.1235 15.2344C51.1235 19.3341 53.9088 22.7937 57.686 23.8254V29.5495C57.686 30.8438 58.7355 31.8933 60.0298 31.8933C61.324 31.8933 62.3735 30.8438 62.3735 29.5495V23.8254C66.1507 22.7937 68.936 19.3341 68.936 15.2344C68.936 10.3235 64.9406 6.32812 60.0298 6.32812ZM60.0298 19.4531C57.7036 19.4531 55.811 17.5605 55.811 15.2344C55.811 12.9082 57.7036 11.0156 60.0298 11.0156C62.3559 11.0156 64.2485 12.9082 64.2485 15.2344C64.2485 17.5605 62.3559 19.4531 60.0298 19.4531Z" fill="black"/>
<path d="M107.082 24.6096C105.4 22.9275 103.163 22.001 100.784 22.001C98.4054 22.001 96.169 22.9275 94.4866 24.6099C91.5879 27.5088 91.1112 31.9245 93.0523 35.325L89.0046 39.3727C88.0894 40.2879 88.0894 41.772 89.0046 42.6874C89.4626 43.1447 90.0623 43.3737 90.6621 43.3737C91.2621 43.3737 91.8616 43.1447 92.3194 42.6872L96.3651 38.6414C97.6964 39.4048 99.2084 39.8138 100.784 39.8138C103.163 39.8138 105.4 38.8873 107.082 37.2052C108.764 35.5231 109.691 33.2864 109.691 30.9075C109.691 28.5286 108.764 26.292 107.082 24.6096ZM103.768 33.8909C102.123 35.5357 99.4462 35.5357 97.8016 33.8909C96.1566 32.2458 96.1566 29.5692 97.8014 27.9244C98.6238 27.1017 99.7041 26.6906 100.785 26.6906C101.865 26.6906 102.945 27.1017 103.768 27.9244C104.565 28.7213 105.004 29.7806 105.004 30.9078C105.004 32.0346 104.565 33.094 103.768 33.8909Z" fill="black"/>
<path d="M111.094 62.7734C106.994 62.7734 103.534 65.5587 102.503 69.3359H96.7786C95.4844 69.3359 94.4348 70.3854 94.4348 71.6796C94.4348 72.9738 95.4844 74.0234 96.7786 74.0234H102.503C103.534 77.8006 106.994 80.5859 111.094 80.5859C116.005 80.5859 120 76.5905 120 71.6796C120 66.7688 116.005 62.7734 111.094 62.7734ZM111.094 75.8984C108.768 75.8984 106.875 74.0058 106.875 71.6796C106.875 69.3535 108.768 67.4609 111.094 67.4609C113.42 67.4609 115.312 69.3535 115.312 71.6796C115.312 74.0058 113.42 75.8984 111.094 75.8984Z" fill="black"/>
<path d="M89.5474 70.0219C89.1117 69.5859 88.507 69.3351 87.8906 69.3351C87.2742 69.3351 86.6695 69.5857 86.2336 70.0219C85.7977 70.458 85.5469 71.0625 85.5469 71.6789C85.5469 72.2976 85.7974 72.9 86.2336 73.3357C86.6695 73.7742 87.2742 74.0226 87.8906 74.0226C88.507 74.0226 89.1117 73.774 89.5474 73.3357C89.9834 72.9 90.2344 72.2953 90.2344 71.6789C90.2344 71.0625 89.9836 70.4601 89.5474 70.0219Z" fill="black"/>
<path d="M23.2214 69.2764H17.4973C16.4655 65.4992 13.0059 62.7139 8.90625 62.7139C3.99539 62.7139 0 66.7093 0 71.6201C0 76.531 3.99539 80.5264 8.90625 80.5264C13.0059 80.5264 16.4655 77.741 17.4973 73.9639H23.2214C24.5156 73.9639 25.5652 72.9143 25.5652 71.6201C25.5652 70.3259 24.5159 69.2764 23.2214 69.2764ZM8.90625 75.8389C6.58008 75.8389 4.6875 73.9463 4.6875 71.6201C4.6875 69.2939 6.58008 67.4014 8.90625 67.4014C11.2324 67.4014 13.125 69.2939 13.125 71.6201C13.125 73.9463 11.2324 75.8389 8.90625 75.8389Z" fill="black"/>
<path d="M30.8533 39.1465L26.8076 35.1009C27.5712 33.7697 27.9799 32.2575 27.9799 30.6816C27.9799 28.3027 27.0534 26.066 25.3711 24.3837C23.6887 22.7016 21.4523 21.7751 19.0734 21.7751C16.6945 21.7751 14.4581 22.7016 12.7758 24.3839C9.3035 27.8564 9.3035 33.5067 12.7758 36.9792C14.4581 38.6613 16.6945 39.5878 19.0737 39.5878C20.6496 39.5878 22.1618 39.1788 23.493 38.4155L27.5388 42.4613C27.9965 42.9188 28.5963 43.1477 29.1961 43.1477C29.7958 43.1477 30.3956 42.9188 30.8533 42.4613C31.7686 41.546 31.7686 40.062 30.8533 39.1465ZM22.058 33.6638C22.0577 33.6642 22.0573 33.6645 22.0568 33.6649C20.4119 35.3102 17.7354 35.3102 16.0908 33.6649C14.4457 32.0199 14.4457 29.3433 16.0905 27.6984C16.913 26.876 17.9932 26.4647 19.0737 26.4647C20.1541 26.4647 21.2344 26.876 22.0568 27.6984C22.8537 28.4953 23.2926 29.5547 23.2926 30.6818C23.2926 31.808 22.8539 32.8671 22.058 33.6638Z" fill="black"/>
</svg>

<svg width="120" height="120" viewBox="0 0 120 120" fill="none" xmlns="http://www.w3.org/2000/svg"><path d="M72.553 76.128a2.351 2.351 0 00-1.011-.07l-.118-.004c3.042-2.973 4.936-7.116 4.936-11.695V41.016a2.344 2.344 0 00-2.344-2.344H56.655c-7.176 0-13.014 5.838-13.014 13.014v12.672c0 4.58 1.894 8.723 4.936 11.695l-.118.005a2.356 2.356 0 00-1.012.07C35.331 77.216 25.802 87.425 25.802 99.82v11.508a2.344 2.344 0 002.344 2.344h63.709a2.344 2.344 0 002.344-2.344V99.82c0-12.395-9.53-22.604-21.646-23.692zm-24.225-21.16v-3.282c0-4.591 3.735-8.327 8.326-8.327h15.018v6.273a5.754 5.754 0 01-5.748 5.747H48.328v-.41zm0 9.39v-4.291h17.596c2.123 0 4.098-.64 5.748-1.732v6.023c0 6.436-5.236 11.672-11.672 11.672-6.436 0-11.672-5.235-11.672-11.671zm17.897 16.36L60 86.943l-6.224-6.225h12.449zm23.286 28.266H30.489v-6.745h19.126a2.344 2.344 0 100-4.687H30.63c1.036-8.712 7.954-15.64 16.66-16.69l11.054 11.053A2.337 2.337 0 0060 92.6c.6 0 1.2-.229 1.657-.686L72.71 80.862c9.45 1.14 16.8 9.205 16.8 18.958v9.164z" fill="#000"/><path d="M61.657 98.238A2.36 2.36 0 0060 97.552c-.616 0-1.221.25-1.657.686a2.361 2.361 0 00-.687 1.657c0 .617.25 1.221.687 1.657a2.36 2.36 0 001.657.687 2.36 2.36 0 001.657-.687 2.36 2.36 0 00.687-1.657 2.36 2.36 0 00-.687-1.657zM60.03 6.328c-4.911 0-8.907 3.995-8.907 8.906 0 4.1 2.786 7.56 6.563 8.591v5.724a2.344 2.344 0 004.688 0v-5.724c3.777-1.031 6.562-4.49 6.562-8.59 0-4.912-3.995-8.907-8.906-8.907zm0 13.125a4.224 4.224 0 01-4.219-4.219 4.224 4.224 0 014.219-4.218 4.224 4.224 0 014.219 4.218 4.224 4.224 0 01-4.22 4.22zm47.052 5.157a8.849 8.849 0 00-6.298-2.61 8.848 8.848 0 00-6.297 2.609c-2.9 2.899-3.376 7.314-1.435 10.715l-4.047 4.048a2.344 2.344 0 003.314 3.314l4.046-4.046a8.853 8.853 0 004.419 1.173 8.849 8.849 0 006.298-2.609 8.85 8.85 0 002.609-6.297 8.85 8.85 0 00-2.609-6.298zm-3.314 9.28a4.224 4.224 0 01-5.966 0 4.224 4.224 0 010-5.966 4.205 4.205 0 012.983-1.233c1.08 0 2.16.41 2.983 1.233a4.191 4.191 0 011.236 2.984 4.191 4.191 0 01-1.236 2.983zm7.326 28.883c-4.1 0-7.56 2.786-8.591 6.563h-5.724a2.344 2.344 0 000 4.687h5.724c1.031 3.778 4.491 6.563 8.591 6.563 4.911 0 8.906-3.995 8.906-8.906 0-4.911-3.995-8.907-8.906-8.907zm0 13.125a4.224 4.224 0 01-4.219-4.218 4.224 4.224 0 014.219-4.22 4.223 4.223 0 014.218 4.22 4.223 4.223 0 01-4.218 4.218zm-21.547-5.876a2.36 2.36 0 00-1.656-.687 2.36 2.36 0 00-1.657.687 2.362 2.362 0 00-.687 1.657c0 .619.25 1.221.687 1.657a2.35 2.35 0 001.657.687 2.35 2.35 0 001.656-.687 2.36 2.36 0 00.687-1.657 2.36 2.36 0 00-.687-1.657zm-66.326-.746h-5.724c-1.032-3.777-4.491-6.562-8.59-6.562C3.994 62.714 0 66.709 0 71.62c0 4.911 3.995 8.906 8.906 8.906 4.1 0 7.56-2.785 8.591-6.562h5.724a2.344 2.344 0 000-4.688zM8.906 75.84a4.224 4.224 0 01-4.219-4.219 4.224 4.224 0 014.22-4.219 4.224 4.224 0 014.218 4.22 4.224 4.224 0 01-4.219 4.218zm21.947-36.693L26.808 35.1a8.851 8.851 0 001.172-4.42 8.848 8.848 0 00-2.609-6.297 8.849 8.849 0 00-6.298-2.609 8.848 8.848 0 00-6.297 2.609c-3.473 3.472-3.473 9.123 0 12.595a8.849 8.849 0 006.298 2.609 8.854 8.854 0 004.419-1.172l4.046 4.045a2.337 2.337 0 001.657.687 2.344 2.344 0 001.657-4.001zm-8.795-5.483h-.001a4.223 4.223 0 01-5.966 0 4.224 4.224 0 010-5.966 4.206 4.206 0 012.983-1.233c1.08 0 2.16.411 2.983 1.233a4.191 4.191 0 011.236 2.984 4.192 4.192 0 01-1.235 2.982z" fill="#000"/></svg>
